src/actions/22/swap-panels.svg

<svg xmlns="http://www.w3.org/2000/svg" viewBox="0 0 22 22">
  <defs id="defs3051">
    <style type="text/css" id="current-color-scheme">
      .ColorScheme-Text {
        color:#2e3440;
      }
      </style>
  </defs>
 <path 
    style="fill:currentColor;fill-opacity:1;stroke:none" 
    d="M 3 3 L 3 19 L 9 19 L 9 18 L 4 18 L 4 7 L 9 7 L 9 9 L 10 9 L 10 7 L 10 3 L 3 3 z M 11 3 L 11 9 L 12 9 L 12 7 L 13 7 L 18 7 L 18 12 L 19 12 L 19 3 L 13 3 L 12 3 L 11 3 z M 11.292969 10 L 8.5 12.792969 L 7.7929688 13.5 L 8.5 14.207031 L 11.292969 17 L 12 16.292969 L 9.7070312 14 L 15 14 L 15 13 L 14 13 L 13 13 L 9.7070312 13 L 12 10.707031 L 11.292969 10 z M 16.707031 13 L 16 13.707031 L 18.292969 16 L 13 16 L 13 17 L 14 17 L 15 17 L 18.292969 17 L 16 19.292969 L 16.707031 20 L 19.5 17.207031 L 20.207031 16.5 L 19.5 15.792969 L 16.707031 13 z "
	class="ColorScheme-Text"
    />  
</svg>

<svg viewBox="0 0 22 22" xmlns="http://www.w3.org/2000/svg">
 <defs>
  <style type="text/css">.ColorScheme-Text {
        color:#2e3440;
      }</style>
 </defs>
 <path class="ColorScheme-Text" d="m3 3v16h6v-1h-5v-11h5v2h1v-2-4h-7zm8 0v6h1v-2h1 5v5h1v-9h-6-1-1zm0.29297 7-3.5 3.5 3.5 3.5 0.70703-0.70703-2.293-2.293h5.293v-1h-1-1-3.293l2.293-2.293-0.70703-0.70703zm5.4141 3-0.70703 0.70703 2.293 2.293h-5.293v1h1 1 3.293l-2.293 2.293 0.70703 0.70703 3.5-3.5-3.5-3.5z" fill="currentColor"/>
</svg>
